X: 239
T: the Fitzwilliam
%%VWML:Prestons1794-3056d-p101-0
F:http://www.vwml.org/record/Prestons1794/3056d/p101
Z: 2014 John Chambers <jc:trillian.mit.edu>
B: Preston "Twenty four Country Dances for the Year 1794" p.100 #1
F: http://www.vwml.org/browse/browse-collections-dance-tune-books/browse-prestons1794# 2014-8-10
N: The rhythms at strain boundaries aren't quite right, due to the initial E pickup note.
M: 2/4
L: 1/8
K: A
E |\
AAAB | c>dcA | B>cBG | A/G/A/B/ AE |\
AAAB | c>dcA | dB AG | A2 A2 :|
|:\
e2 (e/f/e/d/) | cccd | eaed | c>de2 |\
e2 (e/f/e/d/) | cccd | eaed | c>d e2 :|
|:\
dddB | cccA | dddB | e>f e2 |\
d>edB | c>dcA | dB AG | A2 A2 :|
% - - - - - - - - - - - - - - - - - - - - - - - - -
%%begintext align
%%      Foot it & right hands across .|
%%    Foot it & left hands back again :|
%%       Lead down 2 Cu: up again :|.
%%              Allemande :|:
%% Lead thro' the bottom come up 1 Cu: .||
%%         Right & left at top :||
%%endtext
% - - - - - - - - - - - - - - - - - - - - - - - - -
T: Prince Adolphus fancy
%R: march, reel
Z: 2014 John Chambers <jc:trillian.mit.edu>
B: Preston "Twenty four Country Dances for the Year 1794" p.100 #2
F: http://www.vwml.org/browse/browse-collections-dance-tune-books/browse-prestons1794# 2014-8-10
M: C|
L: 1/8
K: D
|:\
a3f d2d2 | efge fgfd |\
a3f d2d2 |cdec d2D2 :|
|:\
AdAd BdBd | AdAd dfaf |\
AdAd BdBd | dfaf d2D2 :|
% - - - - - - - - - - - - - - - - - - - - - - - - -
%%begintext align
%% The 1st Lady turn the 2d Gent.n & retreat
%% back to her place .| The 1st Gent.n do the
%% same with the Ladies :| Lead down the
%% middle & back again into the 2d Cu: places :|.
%% The 1st & 2d Cu: Le Poussette :|:
%%endtext
% - - - - - - - - - - - - - - - - - - - - - - - - -
